images/6603782.svg

<?xml version="1.0" encoding="UTF-8"?>
<svg xmlns="http://www.w3.org/2000/svg" xmlns:xlink="http://www.w3.org/1999/xlink" width="300pt" height="300pt" viewBox="0 0 300 300" version="1.1">
<defs>
<g>
<symbol overflow="visible" id="glyph0-0">
<path style="stroke:none;" d="M 0.59375 2.125 L 0.59375 -8.46875 L 6.59375 -8.46875 L 6.59375 2.125 Z M 1.265625 1.453125 L 5.9375 1.453125 L 5.9375 -7.78125 L 1.265625 -7.78125 Z M 1.265625 1.453125 "/>
</symbol>
<symbol overflow="visible" id="glyph0-1">
<path style="stroke:none;" d="M 1.171875 -8.75 L 2.765625 -8.75 L 6.65625 -1.4375 L 6.65625 -8.75 L 7.796875 -8.75 L 7.796875 0 L 6.203125 0 L 2.328125 -7.3125 L 2.328125 0 L 1.171875 0 Z M 1.171875 -8.75 "/>
</symbol>
<symbol overflow="visible" id="glyph0-2">
<path style="stroke:none;" d="M 4.734375 -7.953125 C 3.867188 -7.953125 3.179688 -7.628906 2.671875 -6.984375 C 2.171875 -6.347656 1.921875 -5.472656 1.921875 -4.359375 C 1.921875 -3.265625 2.171875 -2.394531 2.671875 -1.75 C 3.179688 -1.113281 3.867188 -0.796875 4.734375 -0.796875 C 5.585938 -0.796875 6.265625 -1.113281 6.765625 -1.75 C 7.273438 -2.394531 7.53125 -3.265625 7.53125 -4.359375 C 7.53125 -5.472656 7.273438 -6.347656 6.765625 -6.984375 C 6.265625 -7.628906 5.585938 -7.953125 4.734375 -7.953125 Z M 4.734375 -8.90625 C 5.953125 -8.90625 6.925781 -8.492188 7.65625 -7.671875 C 8.394531 -6.847656 8.765625 -5.742188 8.765625 -4.359375 C 8.765625 -2.984375 8.394531 -1.882812 7.65625 -1.0625 C 6.925781 -0.238281 5.953125 0.171875 4.734375 0.171875 C 3.503906 0.171875 2.519531 -0.238281 1.78125 -1.0625 C 1.039062 -1.882812 0.671875 -2.984375 0.671875 -4.359375 C 0.671875 -5.742188 1.039062 -6.847656 1.78125 -7.671875 C 2.519531 -8.492188 3.503906 -8.90625 4.734375 -8.90625 Z M 4.734375 -8.90625 "/>
</symbol>
<symbol overflow="visible" id="glyph0-3">
<path style="stroke:none;" d="M 7.734375 -8.078125 L 7.734375 -6.828125 C 7.328125 -7.203125 6.898438 -7.476562 6.453125 -7.65625 C 6.003906 -7.84375 5.523438 -7.9375 5.015625 -7.9375 C 4.015625 -7.9375 3.25 -7.628906 2.71875 -7.015625 C 2.1875 -6.398438 1.921875 -5.515625 1.921875 -4.359375 C 1.921875 -3.210938 2.1875 -2.332031 2.71875 -1.71875 C 3.25 -1.101562 4.015625 -0.796875 5.015625 -0.796875 C 5.523438 -0.796875 6.003906 -0.890625 6.453125 -1.078125 C 6.898438 -1.265625 7.328125 -1.539062 7.734375 -1.90625 L 7.734375 -0.671875 C 7.316406 -0.390625 6.875 -0.175781 6.40625 -0.03125 C 5.945312 0.101562 5.460938 0.171875 4.953125 0.171875 C 3.617188 0.171875 2.570312 -0.234375 1.8125 -1.046875 C 1.050781 -1.859375 0.671875 -2.960938 0.671875 -4.359375 C 0.671875 -5.765625 1.050781 -6.875 1.8125 -7.6875 C 2.570312 -8.5 3.617188 -8.90625 4.953125 -8.90625 C 5.472656 -8.90625 5.960938 -8.832031 6.421875 -8.6875 C 6.890625 -8.550781 7.328125 -8.347656 7.734375 -8.078125 Z M 7.734375 -8.078125 "/>
</symbol>
<symbol overflow="visible" id="glyph0-4">
<path style="stroke:none;" d="M 1.125 -9.125 L 2.203125 -9.125 L 2.203125 0 L 1.125 0 Z M 1.125 -9.125 "/>
</symbol>
</g>
</defs>
<g id="surface30477">
<rect x="0" y="0" width="300" height="300" style="fill:rgb(100%,100%,100%);fill-opacity:1;stroke:none;"/>
<path style="fill:none;stroke-width:1.2;stroke-linecap:butt;stroke-linejoin:miter;stroke:rgb(0%,0%,0%);stroke-opacity:1;stroke-miterlimit:10;" d="M 264.75 129.515625 L 239.46875 145.59375 "/>
<path style="fill:none;stroke-width:1.2;stroke-linecap:butt;stroke-linejoin:miter;stroke:rgb(0%,0%,0%);stroke-opacity:1;stroke-miterlimit:10;" d="M 239.46875 145.59375 L 212.90625 131.742188 "/>
<path style="fill:none;stroke-width:1.2;stroke-linecap:butt;stroke-linejoin:miter;stroke:rgb(0%,0%,0%);stroke-opacity:1;stroke-miterlimit:10;" d="M 212.90625 131.742188 L 200.265625 139.78125 "/>
<path style="fill:none;stroke-width:1.2;stroke-linecap:butt;stroke-linejoin:miter;stroke:rgb(0%,0%,100%);stroke-opacity:1;stroke-miterlimit:10;" d="M 200.265625 139.78125 L 187.625 147.820312 "/>
<path style="fill:none;stroke-width:1.2;stroke-linecap:butt;stroke-linejoin:miter;stroke:rgb(0%,0%,100%);stroke-opacity:1;stroke-miterlimit:10;" d="M 187.625 147.820312 L 188.269531 162.785156 "/>
<path style="fill:none;stroke-width:1.2;stroke-linecap:butt;stroke-linejoin:miter;stroke:rgb(0%,0%,0%);stroke-opacity:1;stroke-miterlimit:10;" d="M 188.269531 162.785156 L 188.910156 177.75 "/>
<path style="fill:none;stroke-width:1.2;stroke-linecap:butt;stroke-linejoin:miter;stroke:rgb(0%,0%,100%);stroke-opacity:1;stroke-miterlimit:10;" d="M 187.625 147.820312 L 174.34375 140.894531 "/>
<path style="fill:none;stroke-width:1.2;stroke-linecap:butt;stroke-linejoin:miter;stroke:rgb(0%,0%,0%);stroke-opacity:1;stroke-miterlimit:10;" d="M 174.34375 140.894531 L 161.0625 133.964844 "/>
<path style=" stroke:none;fill-rule:nonzero;fill:rgb(100%,100%,100%);fill-opacity:1;" d="M 183.625 140.820312 L 192.625 140.820312 L 192.625 154.820312 L 183.625 154.820312 Z M 183.625 140.820312 "/>
<g style="fill:rgb(0%,0%,100%);fill-opacity:1;">
  <use xlink:href="#glyph0-1" x="183.625" y="151.958984"/>
</g>
<path style="fill:none;stroke-width:1.2;stroke-linecap:butt;stroke-linejoin:miter;stroke:rgb(0%,0%,0%);stroke-opacity:1;stroke-miterlimit:10;" d="M 188.910156 177.75 L 215.476562 191.605469 "/>
<path style="fill:none;stroke-width:1.2;stroke-linecap:butt;stroke-linejoin:miter;stroke:rgb(0%,0%,0%);stroke-opacity:1;stroke-miterlimit:10;" d="M 215.476562 191.605469 L 216.761719 221.535156 "/>
<path style="fill:none;stroke-width:1.2;stroke-linecap:butt;stroke-linejoin:miter;stroke:rgb(0%,0%,0%);stroke-opacity:1;stroke-miterlimit:10;" d="M 164.582031 133.816406 L 163.941406 118.847656 "/>
<path style="fill:none;stroke-width:1.2;stroke-linecap:butt;stroke-linejoin:miter;stroke:rgb(100%,0%,0%);stroke-opacity:1;stroke-miterlimit:10;" d="M 163.941406 118.847656 L 163.296875 103.882812 "/>
<path style="fill:none;stroke-width:1.2;stroke-linecap:butt;stroke-linejoin:miter;stroke:rgb(0%,0%,0%);stroke-opacity:1;stroke-miterlimit:10;" d="M 157.539062 134.117188 L 156.898438 119.152344 "/>
<path style="fill:none;stroke-width:1.2;stroke-linecap:butt;stroke-linejoin:miter;stroke:rgb(100%,0%,0%);stroke-opacity:1;stroke-miterlimit:10;" d="M 156.898438 119.152344 L 156.257812 104.183594 "/>
<path style="fill:none;stroke-width:1.2;stroke-linecap:butt;stroke-linejoin:miter;stroke:rgb(0%,0%,0%);stroke-opacity:1;stroke-miterlimit:10;" d="M 161.0625 133.964844 L 135.78125 150.042969 "/>
<path style=" stroke:none;fill-rule:nonzero;fill:rgb(100%,100%,100%);fill-opacity:1;" d="M 154.777344 97.035156 L 164.777344 97.035156 L 164.777344 111.035156 L 154.777344 111.035156 Z M 154.777344 97.035156 "/>
<g style="fill:rgb(100%,0%,0%);fill-opacity:1;">
  <use xlink:href="#glyph0-2" x="154.777344" y="108.173828"/>
</g>
<path style="fill:none;stroke-width:1.2;stroke-linecap:butt;stroke-linejoin:miter;stroke:rgb(0%,0%,0%);stroke-opacity:1;stroke-miterlimit:10;" d="M 135.78125 150.042969 L 109.21875 136.191406 "/>
<path style="fill:none;stroke-width:1.2;stroke-linecap:butt;stroke-linejoin:miter;stroke:rgb(0%,0%,0%);stroke-opacity:1;stroke-miterlimit:10;" d="M 109.21875 136.191406 L 82.394531 149.539062 "/>
<path style="fill:none;stroke-width:1.2;stroke-linecap:butt;stroke-linejoin:miter;stroke:rgb(0%,0%,0%);stroke-opacity:1;stroke-miterlimit:10;" d="M 103.394531 131.214844 L 81.9375 141.894531 "/>
<path style="fill:none;stroke-width:1.2;stroke-linecap:butt;stroke-linejoin:miter;stroke:rgb(0%,0%,100%);stroke-opacity:1;stroke-miterlimit:10;" d="M 104.8125 106.558594 L 107.015625 121.375 "/>
<path style="fill:none;stroke-width:1.2;stroke-linecap:butt;stroke-linejoin:miter;stroke:rgb(0%,0%,0%);stroke-opacity:1;stroke-miterlimit:10;" d="M 107.015625 121.375 L 109.21875 136.191406 "/>
<path style="fill:none;stroke-width:1.2;stroke-linecap:butt;stroke-linejoin:miter;stroke:rgb(0%,0%,0%);stroke-opacity:1;stroke-miterlimit:10;" d="M 82.394531 149.539062 L 71.90625 138.847656 "/>
<path style="fill:none;stroke-width:1.2;stroke-linecap:butt;stroke-linejoin:miter;stroke:rgb(0%,0%,100%);stroke-opacity:1;stroke-miterlimit:10;" d="M 71.90625 138.847656 L 61.414062 128.15625 "/>
<path style="fill:none;stroke-width:1.2;stroke-linecap:butt;stroke-linejoin:miter;stroke:rgb(0%,0%,0%);stroke-opacity:1;stroke-miterlimit:10;" d="M 82.394531 149.539062 L 77.429688 179.085938 "/>
<path style="fill:none;stroke-width:1.2;stroke-linecap:butt;stroke-linejoin:miter;stroke:rgb(0%,0%,100%);stroke-opacity:1;stroke-miterlimit:10;" d="M 61.414062 128.15625 L 68.339844 114.871094 "/>
<path style="fill:none;stroke-width:1.2;stroke-linecap:butt;stroke-linejoin:miter;stroke:rgb(0%,0%,0%);stroke-opacity:1;stroke-miterlimit:10;" d="M 68.339844 114.871094 L 75.265625 101.589844 "/>
<path style="fill:none;stroke-width:1.2;stroke-linecap:butt;stroke-linejoin:miter;stroke:rgb(0%,0%,100%);stroke-opacity:1;stroke-miterlimit:10;" d="M 69.050781 128.757812 L 74.589844 118.132812 "/>
<path style="fill:none;stroke-width:1.2;stroke-linecap:butt;stroke-linejoin:miter;stroke:rgb(0%,0%,0%);stroke-opacity:1;stroke-miterlimit:10;" d="M 74.589844 118.132812 L 80.132812 107.507812 "/>
<path style=" stroke:none;fill-rule:nonzero;fill:rgb(100%,100%,100%);fill-opacity:1;" d="M 57.414062 121.15625 L 66.414062 121.15625 L 66.414062 135.15625 L 57.414062 135.15625 Z M 57.414062 121.15625 "/>
<g style="fill:rgb(0%,0%,100%);fill-opacity:1;">
  <use xlink:href="#glyph0-1" x="57.414062" y="132.294922"/>
</g>
<path style="fill:none;stroke-width:1.2;stroke-linecap:butt;stroke-linejoin:miter;stroke:rgb(0%,0%,0%);stroke-opacity:1;stroke-miterlimit:10;" d="M 75.265625 101.589844 L 90.039062 104.074219 "/>
<path style="fill:none;stroke-width:1.2;stroke-linecap:butt;stroke-linejoin:miter;stroke:rgb(0%,0%,100%);stroke-opacity:1;stroke-miterlimit:10;" d="M 90.039062 104.074219 L 104.8125 106.558594 "/>
<path style="fill:none;stroke-width:1.2;stroke-linecap:butt;stroke-linejoin:miter;stroke:rgb(0%,0%,0%);stroke-opacity:1;stroke-miterlimit:10;" d="M 64.796875 73.519531 L 75.265625 101.589844 "/>
<path style="fill:none;stroke-width:1.2;stroke-linecap:butt;stroke-linejoin:miter;stroke:rgb(0%,0%,100%);stroke-opacity:1;stroke-miterlimit:10;" d="M 104.8125 106.558594 L 114.347656 95.003906 "/>
<path style="fill:none;stroke-width:1.2;stroke-linecap:butt;stroke-linejoin:miter;stroke:rgb(0%,0%,0%);stroke-opacity:1;stroke-miterlimit:10;" d="M 114.347656 95.003906 L 123.886719 83.453125 "/>
<path style=" stroke:none;fill-rule:nonzero;fill:rgb(100%,100%,100%);fill-opacity:1;" d="M 100.8125 99.558594 L 109.8125 99.558594 L 109.8125 113.558594 L 100.8125 113.558594 Z M 100.8125 99.558594 "/>
<g style="fill:rgb(0%,0%,100%);fill-opacity:1;">
  <use xlink:href="#glyph0-1" x="100.8125" y="110.697266"/>
</g>
<path style="fill:none;stroke-width:1.2;stroke-linecap:butt;stroke-linejoin:miter;stroke:rgb(0%,0%,0%);stroke-opacity:1;stroke-miterlimit:10;" d="M 123.886719 83.453125 L 113.414062 55.382812 "/>
<path style="fill:none;stroke-width:1.2;stroke-linecap:butt;stroke-linejoin:miter;stroke:rgb(0%,0%,0%);stroke-opacity:1;stroke-miterlimit:10;" d="M 116.234375 83.109375 L 107.855469 60.65625 "/>
<path style="fill:none;stroke-width:1.2;stroke-linecap:butt;stroke-linejoin:miter;stroke:rgb(0%,0%,0%);stroke-opacity:1;stroke-miterlimit:10;" d="M 113.414062 55.382812 L 83.867188 50.417969 "/>
<path style="fill:none;stroke-width:1.2;stroke-linecap:butt;stroke-linejoin:miter;stroke:rgb(0%,0%,0%);stroke-opacity:1;stroke-miterlimit:10;" d="M 113.414062 55.382812 L 122.949219 43.832031 "/>
<path style="fill:none;stroke-width:1.2;stroke-linecap:butt;stroke-linejoin:miter;stroke:rgb(0%,80%,0%);stroke-opacity:1;stroke-miterlimit:10;" d="M 122.949219 43.832031 L 132.488281 32.28125 "/>
<path style="fill:none;stroke-width:1.2;stroke-linecap:butt;stroke-linejoin:miter;stroke:rgb(0%,0%,0%);stroke-opacity:1;stroke-miterlimit:10;" d="M 83.867188 50.417969 L 64.796875 73.519531 "/>
<path style="fill:none;stroke-width:1.2;stroke-linecap:butt;stroke-linejoin:miter;stroke:rgb(0%,0%,0%);stroke-opacity:1;stroke-miterlimit:10;" d="M 87.398438 57.214844 L 72.136719 75.699219 "/>
<path style="fill:none;stroke-width:1.2;stroke-linecap:butt;stroke-linejoin:miter;stroke:rgb(0%,0%,0%);stroke-opacity:1;stroke-miterlimit:10;" d="M 64.796875 73.519531 L 50.023438 71.039062 "/>
<path style="fill:none;stroke-width:1.2;stroke-linecap:butt;stroke-linejoin:miter;stroke:rgb(0%,80%,0%);stroke-opacity:1;stroke-miterlimit:10;" d="M 50.023438 71.039062 L 35.25 68.554688 "/>
<path style=" stroke:none;fill-rule:nonzero;fill:rgb(100%,100%,100%);fill-opacity:1;" d="M 23.25 61.554688 L 35.25 61.554688 L 35.25 75.554688 L 23.25 75.554688 Z M 23.25 61.554688 "/>
<g style="fill:rgb(0%,80%,0%);fill-opacity:1;">
  <use xlink:href="#glyph0-3" x="23.25" y="72.693359"/>
  <use xlink:href="#glyph0-4" x="31.628906" y="72.693359"/>
</g>
<path style=" stroke:none;fill-rule:nonzero;fill:rgb(100%,100%,100%);fill-opacity:1;" d="M 126.488281 25.28125 L 138.488281 25.28125 L 138.488281 39.28125 L 126.488281 39.28125 Z M 126.488281 25.28125 "/>
<g style="fill:rgb(0%,80%,0%);fill-opacity:1;">
  <use xlink:href="#glyph0-3" x="126.488281" y="36.419922"/>
  <use xlink:href="#glyph0-4" x="134.867188" y="36.419922"/>
</g>
<path style="fill:none;stroke-width:1.2;stroke-linecap:butt;stroke-linejoin:miter;stroke:rgb(0%,0%,0%);stroke-opacity:1;stroke-miterlimit:10;" d="M 77.429688 179.085938 L 49.359375 189.554688 "/>
<path style="fill:none;stroke-width:1.2;stroke-linecap:butt;stroke-linejoin:miter;stroke:rgb(0%,0%,0%);stroke-opacity:1;stroke-miterlimit:10;" d="M 77.085938 186.738281 L 54.628906 195.113281 "/>
<path style="fill:none;stroke-width:1.2;stroke-linecap:butt;stroke-linejoin:miter;stroke:rgb(0%,0%,0%);stroke-opacity:1;stroke-miterlimit:10;" d="M 100.535156 198.160156 L 77.429688 179.085938 "/>
<path style="fill:none;stroke-width:1.2;stroke-linecap:butt;stroke-linejoin:miter;stroke:rgb(0%,0%,0%);stroke-opacity:1;stroke-miterlimit:10;" d="M 49.359375 189.554688 L 44.394531 219.101562 "/>
<path style="fill:none;stroke-width:1.2;stroke-linecap:butt;stroke-linejoin:miter;stroke:rgb(0%,0%,0%);stroke-opacity:1;stroke-miterlimit:10;" d="M 44.394531 219.101562 L 67.496094 238.175781 "/>
<path style="fill:none;stroke-width:1.2;stroke-linecap:butt;stroke-linejoin:miter;stroke:rgb(0%,0%,0%);stroke-opacity:1;stroke-miterlimit:10;" d="M 51.191406 215.574219 L 69.675781 230.832031 "/>
<path style="fill:none;stroke-width:1.2;stroke-linecap:butt;stroke-linejoin:miter;stroke:rgb(0%,0%,0%);stroke-opacity:1;stroke-miterlimit:10;" d="M 67.496094 238.175781 L 95.566406 227.703125 "/>
<path style="fill:none;stroke-width:1.2;stroke-linecap:butt;stroke-linejoin:miter;stroke:rgb(0%,0%,0%);stroke-opacity:1;stroke-miterlimit:10;" d="M 67.496094 238.175781 L 65.011719 252.949219 "/>
<path style="fill:none;stroke-width:1.2;stroke-linecap:butt;stroke-linejoin:miter;stroke:rgb(0%,80%,0%);stroke-opacity:1;stroke-miterlimit:10;" d="M 65.011719 252.949219 L 62.53125 267.71875 "/>
<path style="fill:none;stroke-width:1.2;stroke-linecap:butt;stroke-linejoin:miter;stroke:rgb(0%,0%,0%);stroke-opacity:1;stroke-miterlimit:10;" d="M 95.566406 227.703125 L 100.535156 198.160156 "/>
<path style="fill:none;stroke-width:1.2;stroke-linecap:butt;stroke-linejoin:miter;stroke:rgb(0%,0%,0%);stroke-opacity:1;stroke-miterlimit:10;" d="M 89.113281 223.582031 L 93.085938 199.945312 "/>
<path style=" stroke:none;fill-rule:nonzero;fill:rgb(100%,100%,100%);fill-opacity:1;" d="M 56.53125 260.71875 L 68.53125 260.71875 L 68.53125 274.71875 L 56.53125 274.71875 Z M 56.53125 260.71875 "/>
<g style="fill:rgb(0%,80%,0%);fill-opacity:1;">
  <use xlink:href="#glyph0-3" x="56.53125" y="271.857422"/>
  <use xlink:href="#glyph0-4" x="64.910156" y="271.857422"/>
</g>
</g>
</svg>

<svg xmlns="http://www.w3.org/2000/svg" xmlns:xlink="http://www.w3.org/1999/xlink" width="300pt" height="300pt" viewBox="0 0 300 300"><defs><symbol overflow="visible"><path d="M.594 2.125V-8.47h6V2.126zm.672-.672h4.671V-7.78h-4.67zm0 0"/></symbol><symbol overflow="visible" id="a"><path d="M1.172-8.75h1.594l3.89 7.313V-8.75h1.14V0H6.204L2.328-7.313V0H1.172zm0 0"/></symbol><symbol overflow="visible" id="b"><path d="M4.734-7.953c-.867 0-1.554.324-2.062.97-.5.635-.75 1.51-.75 2.624 0 1.094.25 1.965.75 2.61.508.637 1.195.953 2.062.953.852 0 1.532-.316 2.032-.953.507-.645.765-1.516.765-2.61 0-1.113-.257-1.988-.764-2.624-.5-.645-1.18-.97-2.032-.97zm0-.953c1.22 0 2.192.414 2.922 1.234.74.824 1.11 1.93 1.11 3.313 0 1.376-.37 2.477-1.11 3.298C6.926-.24 5.953.17 4.734.17c-1.23 0-2.214-.41-2.953-1.234C1.04-1.882.673-2.984.673-4.36c0-1.382.367-2.488 1.11-3.312.738-.82 1.722-1.234 2.952-1.234zm0 0"/></symbol><symbol overflow="visible" id="c"><path d="M7.734-8.078v1.25c-.406-.375-.836-.65-1.28-.828-.45-.188-.93-.282-1.438-.282-1 0-1.766.31-2.297.922-.533.618-.798 1.5-.798 2.657 0 1.15.266 2.028.797 2.64.53.618 1.296.923 2.296.923.507 0 .988-.094 1.437-.28.445-.19.875-.462 1.28-.83V-.67c-.417.28-.858.496-1.327.64-.46.134-.945.204-1.453.204-1.336 0-2.383-.406-3.14-1.22-.762-.81-1.14-1.913-1.14-3.31 0-1.408.378-2.517 1.14-3.33.757-.812 1.804-1.218 3.14-1.218.52 0 1.008.074 1.47.22.468.135.905.338 1.31.608zm0 0"/></symbol><symbol overflow="visible" id="d"><path d="M1.125-9.125h1.078V0H1.125zm0 0"/></symbol></defs><g><path fill="#fff" d="M0 0h300v300H0z"/><path d="M264.75 129.516l-25.28 16.078M239.47 145.594l-26.564-13.852M212.906 131.742l-12.64 8.04" stroke-width="1.2" stroke="#000" stroke-miterlimit="10" fill="none"/><path d="M200.266 139.78l-12.64 8.04M187.625 147.82l.645 14.965" stroke-width="1.2" stroke="#00f" stroke-miterlimit="10" fill="none"/><path d="M188.27 162.785l.64 14.965" stroke-width="1.2" stroke="#000" stroke-miterlimit="10" fill="none"/><path d="M187.625 147.82l-13.28-6.925" stroke-width="1.2" stroke="#00f" stroke-miterlimit="10" fill="none"/><path d="M174.344 140.895l-13.28-6.93" stroke-width="1.2" stroke="#000" stroke-miterlimit="10" fill="none"/><path d="M183.625 140.82h9v14h-9zm0 0" fill="#fff"/><use xlink:href="#a" x="183.625" y="151.959" fill="#00f"/><path d="M188.91 177.75l26.567 13.855M215.477 191.605l1.285 29.93M164.582 133.816l-.64-14.968" stroke-width="1.2" stroke="#000" stroke-miterlimit="10" fill="none"/><path d="M163.94 118.848l-.643-14.965" stroke-width="1.2" stroke="#f00" stroke-miterlimit="10" fill="none"/><path d="M157.54 134.117l-.642-14.965" stroke-width="1.2" stroke="#000" stroke-miterlimit="10" fill="none"/><path d="M156.898 119.152l-.64-14.968" stroke-width="1.2" stroke="#f00" stroke-miterlimit="10" fill="none"/><path d="M161.063 133.965l-25.282 16.078" stroke-width="1.2" stroke="#000" stroke-miterlimit="10" fill="none"/><path d="M154.777 97.035h10v14h-10zm0 0" fill="#fff"/><use xlink:href="#b" x="154.777" y="108.174" fill="#f00"/><path d="M135.78 150.043l-26.56-13.852M109.22 136.19l-26.825 13.35M103.395 131.215l-21.457 10.68" stroke-width="1.2" stroke="#000" stroke-miterlimit="10" fill="none"/><path d="M104.813 106.56l2.203 14.815" stroke-width="1.2" stroke="#00f" stroke-miterlimit="10" fill="none"/><path d="M107.016 121.375l2.203 14.816M82.395 149.54l-10.49-10.692" stroke-width="1.2" stroke="#000" stroke-miterlimit="10" fill="none"/><path d="M71.906 138.848l-10.492-10.692" stroke-width="1.2" stroke="#00f" stroke-miterlimit="10" fill="none"/><path d="M82.395 149.54l-4.965 29.546" stroke-width="1.2" stroke="#000" stroke-miterlimit="10" fill="none"/><path d="M61.414 128.156l6.926-13.285" stroke-width="1.2" stroke="#00f" stroke-miterlimit="10" fill="none"/><path d="M68.34 114.87l6.926-13.28" stroke-width="1.2" stroke="#000" stroke-miterlimit="10" fill="none"/><path d="M69.05 128.758l5.54-10.625" stroke-width="1.2" stroke="#00f" stroke-miterlimit="10" fill="none"/><path d="M74.59 118.133l5.543-10.625" stroke-width="1.2" stroke="#000" stroke-miterlimit="10" fill="none"/><path d="M57.414 121.156h9v14h-9zm0 0" fill="#fff"/><use xlink:href="#a" x="57.414" y="132.295" fill="#00f"/><path d="M75.266 101.59l14.773 2.484" stroke-width="1.2" stroke="#000" stroke-miterlimit="10" fill="none"/><path d="M90.04 104.074l14.772 2.485" stroke-width="1.2" stroke="#00f" stroke-miterlimit="10" fill="none"/><path d="M64.797 73.52l10.47 28.07" stroke-width="1.2" stroke="#000" stroke-miterlimit="10" fill="none"/><path d="M104.813 106.56l9.535-11.556" stroke-width="1.2" stroke="#00f" stroke-miterlimit="10" fill="none"/><path d="M114.348 95.004l9.54-11.55" stroke-width="1.2" stroke="#000" stroke-miterlimit="10" fill="none"/><path d="M100.813 99.56h9v14h-9zm0 0" fill="#fff"/><use xlink:href="#a" x="100.813" y="110.697" fill="#00f"/><path d="M123.887 83.453l-10.473-28.07M116.234 83.11l-8.38-22.454M113.414 55.383l-29.547-4.965M113.414 55.383l9.535-11.55" stroke-width="1.2" stroke="#000" stroke-miterlimit="10" fill="none"/><path d="M122.95 43.832l9.538-11.55" stroke-width="1.2" stroke="#0c0" stroke-miterlimit="10" fill="none"/><path d="M83.867 50.418L64.797 73.52M87.398 57.215L72.138 75.7M64.797 73.52l-14.774-2.48" stroke-width="1.2" stroke="#000" stroke-miterlimit="10" fill="none"/><path d="M50.023 71.04L35.25 68.554" stroke-width="1.2" stroke="#0c0" stroke-miterlimit="10" fill="none"/><path d="M23.25 61.555h12v14h-12zm0 0" fill="#fff"/><g fill="#0c0"><use xlink:href="#c" x="23.25" y="72.693"/><use xlink:href="#d" x="31.629" y="72.693"/></g><path d="M126.488 25.28h12v14h-12zm0 0" fill="#fff"/><g fill="#0c0"><use xlink:href="#c" x="126.488" y="36.42"/><use xlink:href="#d" x="134.867" y="36.42"/></g><path d="M77.43 179.086l-28.07 10.47M77.086 186.738l-22.457 8.375M100.535 198.16L77.43 179.086M49.36 189.555l-4.965 29.547M44.395 219.102l23.1 19.074M51.19 215.574l18.486 15.258M67.496 238.176l28.07-10.473M67.496 238.176l-2.484 14.773" stroke-width="1.2" stroke="#000" stroke-miterlimit="10" fill="none"/><path d="M65.012 252.95l-2.48 14.77" stroke-width="1.2" stroke="#0c0" stroke-miterlimit="10" fill="none"/><path d="M95.566 227.703l4.97-29.543M89.113 223.582l3.973-23.637" stroke-width="1.2" stroke="#000" stroke-miterlimit="10" fill="none"/><path d="M56.53 260.72h12v14h-12zm0 0" fill="#fff"/><g fill="#0c0"><use xlink:href="#c" x="56.531" y="271.857"/><use xlink:href="#d" x="64.91" y="271.857"/></g></g></svg>
